X: 38952
T: Sven's
R: reel
M: 4/4
K: Dmajor
|:fd ~d2 BdAB|defa bafa|ge ~e2 fedf|eaaa abag|
fd ~d2 BdAB|defa bafa|ge ~e2 fedf|1 edef de~e2:|2 edef defg||
ad ~d2 adba-|adba2 dfa|ge ~e2 fedf|eaaa afg^g|
ad ~d2 adba-|adba2 dfa|ge ~e2 fedf|edce defg|
ad ~d2 adba-|adba2 dfa|ge ~e2 fedf|eaaa abag|
fd ~d2 BdAB|defa bafa|ge ~e2 fedf|edef d4||

